site/public/social-youtube.svg

<svg width="32" height="24" viewBox="0 0 32 24" fill="none" xmlns="http://www.w3.org/2000/svg">
<path d="M31.3319 3.70587C31.1465 2.9927 30.7927 2.34294 30.3048 1.81938C29.8169 1.29582 29.2115 0.916178 28.5469 0.717143C26.0526 2.05614e-05 16.0142 2.0305e-05 16.0142 2.0305e-05C16.0142 2.0305e-05 6.00118 -0.0142932 3.48158 0.717143C2.81702 0.916178 2.21154 1.29582 1.72366 1.81938C1.23579 2.34294 0.882017 2.9927 0.696547 3.70587C0.223732 6.44626 -0.00936809 9.22809 0.000288097 12.015C-0.00754264 14.7915 0.22555 17.5627 0.696547 20.2927C0.882017 21.0059 1.23579 21.6557 1.72366 22.1792C2.21154 22.7028 2.81702 23.0824 3.48158 23.2814C5.97317 24 16.0142 24 16.0142 24C16.0142 24 26.026 24 28.5469 23.2814C29.2115 23.0824 29.8169 22.7028 30.3048 22.1792C30.7927 21.6557 31.1465 21.0059 31.3319 20.2927C31.7931 17.5617 32.0164 14.7905 31.9988 12.015C32.0182 9.22907 31.7949 6.44726 31.3319 3.70587ZM12.8104 17.1551V6.8592L21.1655 12.015L12.8104 17.1551Z" fill="black"/>
</svg>

<svg xmlns="http://www.w3.org/2000/svg" fill="none" width="32" height="24" viewBox="0 0 32 24"><path d="M31.332 3.706a4.382 4.382 0 0 0-1.027-1.887A3.96 3.96 0 0 0 28.547.717C26.053 0 16.014 0 16.014 0S6-.014 3.482.717A3.96 3.96 0 0 0 1.724 1.82 4.384 4.384 0 0 0 .697 3.706 47.908 47.908 0 0 0 0 12.016a47.907 47.907 0 0 0 .697 8.277 4.373 4.373 0 0 0 1.027 1.886 3.96 3.96 0 0 0 1.758 1.102c2.49.72 12.532.72 12.532.72s10.012 0 12.533-.717a3.96 3.96 0 0 0 1.758-1.102 4.382 4.382 0 0 0 1.027-1.886 47.9 47.9 0 0 0 .667-8.278 47.905 47.905 0 0 0-.671-8.31ZM12.81 17.156V6.858l8.356 5.156-8.356 5.14Z" fill="#000"/></svg>
